src/assets/top/Turban.svg

<svg width='280px' height='280px' viewBox='0 0 280 280' version='1.1' xmlns='http://www.w3.org/2000/svg'>
      <g id='Top' strokeWidth='1' fillRule='evenodd'>
        <defs>
          <rect id='path1' x='0' y='0' width='264' height='280' />
          <path
            d='M156,180.610951 C173.530782,172.282984 186.048193,155.114792 187.791419,134.867187 C193.569129,134.002364 198,129.018625 198,123 L198,110 C198,104.054007 193.675427,99.1180731 188,98.1659169 L188,92 C188,61.072054 162.927946,36 132,36 C101.072054,36 76,61.072054 76,92 L76,92 L76,98.1659169 C70.3245733,99.1180731 66,104.054007 66,110 L66,123 C66,129.018625 70.4308707,134.002364 76.2085808,134.867187 C77.9518066,155.114792 90.4692178,172.282984 108,180.610951 L108,199 L104,199 L104,199 C64.235498,199 32,231.235498 32,271 L32,280 L232,280 L232,271 C232,231.235498 199.764502,199 160,199 L156,199 L156,180.610951 Z M0,5.68434189e-14 L264,5.68434189e-14 L264,280 L0,280 L0,5.68434189e-14 Z'
            id='path2'
          />
          <path
            d='M83.9715543,55.8170792 C107.404232,69.414362 145.114919,82.1112884 139,138 C158.377483,132.360101 168.044149,116.801277 168,91.3235294 C167.918252,44.1482824 115.850571,6.80154462e-15 86,0 C85.3259486,0 84.6559706,0.0296343787 83.9916946,0.0880669528 C83.3328225,0.0296343217 82.6684563,0 82.0002187,0 C52.0737254,6.80154462e-15 0.0804892181,44.1482783 0.00021866091,91.3235294 C-0.0442202163,117.440393 9.62244645,132.999216 29.0002187,138 C22.8618971,82.1112789 60.5101967,69.4143577 83.9715662,55.8170722 Z'
            id='path3'
          />
          <filter
            x='-0.8%'
            y='-2.0%'
            width='101.5%'
            height='108.0%'
            filterUnits='objectBoundingBox'
            id='filter1'>
            <feOffset
              dx='0'
              dy='2'
              in='SourceAlpha'
              result='shadowOffsetOuter1'
            />
            <feColorMatrix
              values='0 0 0 0 0   0 0 0 0 0   0 0 0 0 0  0 0 0 0.16 0'
              type='matrix'
              in='shadowOffsetOuter1'
              result='shadowMatrixOuter1'
            />
            <feMerge>
              <feMergeNode in='shadowMatrixOuter1' />
              <feMergeNode in='SourceGraphic' />
            </feMerge>
          </filter>
        </defs>
        <mask id='mask1' fill='white'>
          <use href='#path1' />
        </mask>
        <g id='Mask' />
        <g id='Top/Accesories/Turban' mask='url("#mask1")'>
          <g transform='translate(-1.000000, 0.000000)'>
            <g
              id='Behind'
              strokeWidth='1'
              fillRule='evenodd'
              transform='translate(1.000000, 0.000000)'>
              <mask id='mask2' fill='white'>
                <use href='#path2' />
              </mask>
              <g id='Mask-Hair' />
            </g>
            <g
              id='Turban'
              strokeWidth='1'
              fillRule='evenodd'
              transform='translate(1.000000, 0.000000)'>
              <path
                d='M74.5304294,97.5 C73.529284,95.0905557 73,92.5798498 73,90 C73,71.7746033 99.4151998,57 132,57 C164.5848,57 191,71.7746033 191,90 C191,92.5798498 190.470716,95.0905557 189.469571,97.5 C183.398106,82.8878805 159.972341,72 132,72 C104.027659,72 80.6018941,82.8878805 74.5304294,97.5 Z'
                id='Band'
                fill='#EDECE3'
              />
              <g transform='translate(48.000000, 3.000000)'>
                <mask id='mask3' fill='white'>
                  <use href='#path3' />
                </mask>
                <use class='CustomColor' fill='#124C74' href='#path3' />
              </g>
              <path
                d='M48.0110963,96.0123559 C48.3807929,121.112082 58.0438337,136.107963 77.0002187,141 C57.6224465,136.289117 47.9557798,121.632254 48.0002187,97.0294118 C48.0008313,96.6902213 48.0044682,96.351197 48.0110963,96.0123559 Z M152.645822,30.4681115 C153.39011,36.1953086 152.126202,42.8891982 148.000219,50.135763 C136.847465,71.5667661 76.561434,72.0039826 76.3339794,129.679698 C76.1051437,67.7612631 136.805324,67.3799133 148.000219,44.5441176 C150.669864,39.5668152 152.141299,34.8351296 152.645822,30.4681115 Z'
                id='Shadow'
                opacity='0.16'
                fill='#000000'
              />
            </g>
          </g>
        </g>
      </g>
</svg>

<svg width="280" height="280" xmlns="http://www.w3.org/2000/svg"><defs><path id="a" d="M0 0h264v280H0z"/><path d="M156 180.611c17.53-8.328 30.048-25.496 31.791-45.744C193.57 134.002 198 129.02 198 123v-13c0-5.946-4.325-10.882-10-11.834V92c0-30.928-25.072-56-56-56S76 61.072 76 92v6.166c-5.675.952-10 5.888-10 11.834v13c0 6.019 4.43 11.002 10.209 11.867 1.743 20.248 14.26 37.416 31.791 45.744V199h-4c-39.765 0-72 32.235-72 72v9h200v-9c0-39.765-32.235-72-72-72h-4v-18.389zM0 0h264v280H0V0z" id="c"/><path d="M83.972 55.817C107.404 69.414 145.115 82.111 139 138c19.377-5.64 29.044-21.199 29-46.676C167.918 44.148 115.85 0 86 0c-.674 0-1.344.03-2.008.088A22.542 22.542 0 0082 0C52.074 0 .08 44.148 0 91.324-.044 117.44 9.622 132.999 29 138c-6.138-55.889 31.51-68.586 54.972-82.183z" id="d"/></defs><mask id="b" fill="#fff"><use href="#a"/></mask><g mask="url(&quot;#b&quot;)"><path d="M74.53 97.5c-1-2.41-1.53-4.92-1.53-7.5 0-18.225 26.415-33 59-33s59 14.775 59 33c0 2.58-.53 5.09-1.53 7.5C183.398 82.888 159.972 72 132 72c-27.972 0-51.398 10.888-57.47 25.5z" fill="#EDECE3"/><use class="CustomColor" fill="#124C74" href="#d" transform="translate(48 3)"/><path d="M48.011 96.012c.37 25.1 10.033 40.096 28.99 44.988-19.379-4.71-29.045-19.368-29-43.97 0-.34.003-.679.01-1.018zm104.635-65.544c.744 5.727-.52 12.421-4.646 19.668-11.153 21.43-71.439 21.868-71.666 79.544-.229-61.919 60.471-62.3 71.666-85.136 2.67-4.977 4.141-9.709 4.646-14.076z" opacity=".16"/></g></svg>
